X:1
T:One Sits upon the Throne
T:One Sits upon the Throne
T:Johann Schein, 1628, harm. Johann S. Bach
T:Eliza Walker, 1864, adap. Richard Adams, 2016
T:Public Domain Courtesy of the Cyber Hymnal™
T:Public Domain Courtesy of the Cyber Hymnal™
C:Johann Schein, 1628, harm. Johann S. Bach
Z:Public Domain
Z:Courtesy of the Cyber Hymnal™
%%score ( 1 2 ) ( 3 4 )
L:1/8
Q:1/4=105
M:4/4
K:D
V:1 treble 
V:2 treble 
V:3 bass 
V:4 bass 
V:1
 [A,D]2 | [DF]2 [DG]2 [EA]2 [DA]2 | G2 [DF]2 [CE]2 [EA]2 | [^GB]2 [Ac]2 [Ed]2 [Ec]2 | %4
w: 1.~When|war’s shrill blast a-|broad is heard, With|thrones like sap- lings|
w: 2.~When|there is wild con-|fu- sion round, Strange|dis- cord and per-|
w: 3.~When|some dis- tress- ing,|pierc- ing strain, Or|ma- niac shout shall|
w: 4.~When|wea- ry of the|cease- less fight With|Sa- tan and his|
w: 5.~A|skill- ful hand, di-|vin- ely strong, Guides|cours- es strange of|
 [EB]2 B2 [CA]2 | [A,D]2 | [DF]2 [DG]2 [EA]2 [DA]2 | G2 [DF]2 [CE]2 [EA]2 | %8
w: sh- ak- ing;|When|peace, ‟like an af-|fright- ed bird,” Her|
w: pe- tual din;|When|vex- èd with the|sight and sound Of|
w: reach thine ear,|And|thou dis- cern- est|there is pain In|
w: an- gry host,|Or|when the world, in|fan- cied might, A|
w: change- ful years,|And|it shall make to|cease, ere long, All|
 [^GB]2 [Ac]2 [Ed]2 [Ec]2 | [EB]2 B2 [CA]2 | [CA]2 | [Dd]2 [Ec]2 [FB]2 [FA]2 | G2 [DF]2 [CE]2 A2 | %13
w: flight from earth is|t- a- king—|Know|that a throne is|set in Heav’n One|
w: suf- fering good- ness,|lord- ly sin—|Know|that a throne is|set in Heav’n, One|
w: count- less hearts thou|canst not cheer—|Know|that a throne is|set in Heav’n, One|
w: mo- ment o’er the|Church may boast—|Know|that a throne is|set in Heav’n, One|
w: cause of mis- er-|y and tears.|Know|that a throne is|set in Heav’n, God|
 [DG]2 [DF]2 [B,E]2 [B,G]2 | [DF]2 [CE]2 D2 x |] %15
w: sits up- on the|throne who sees.|
w: sits up- on the|throne who hears.|
w: sits up- on the|throne who knows.|
w: sits up- on the|throne in light.|
w: sits up- on the|throne in love.|
V:2
 x2 | x8 | (B,C) x6 | x8 | x2 (ED) x2 | x2 | x8 | (B,C) x6 | x8 | x2 (ED) x2 | x2 | x8 | %12
 (B,C) x3 (FE) x | x8 | x4 D2 x |] %15
V:3
 [D,F,]2 | [D,A,]2 [B,,G,]2 [C,E,]2 [D,F,]2 | [E,G,]2 ([F,A,][G,B,]) [A,C]2 C2 | %3
 [B,D]2 [A,E]2 [^G,B,]2 (CA,) | [E,A,]2 [E,^G,]2 [A,,A,]2 | [D,F,]2 | %6
 [D,A,]2 [B,,G,]2 [C,E,]2 [D,F,]2 | [E,G,]2 ([F,A,][G,B,]) [A,C]2 C2 | %8
 [B,D]2 [A,E]2 [^G,B,]2 (CA,) | [E,A,]2 [E,^G,]2 [A,,A,]2 | (A,G,) | %11
 [B,,F,]2 [C,F,]2 [D,B,]2 [^D,B,]2 | [E,B,]2 A,2 A,2 [F,C]2 | B,2 [D,A,]2 [G,B,]2 [E,G,]2 | %14
 A,3 z G, [D,F,]2 |] %15
V:4
 x2 | x8 | x6 C2 | x6 A,2 | x6 | x2 | x8 | x6 C2 | x6 A,2 | x6 | A,,2 | x8 | x2 (F,G,) x4 | %13
 (B,,C,) x6 | A,,2 A,,2 x3 |] %15

